X:1
L:1/8
M:4/4
K:C
 G | E2 G2 c3 G | A2 F2 d3 c | B2 A2 G2 F2 | (E4 E2) G2 | E2 G2 c3 G | A2 F2 d3 c | B2 c2 e3 d | 
 (c4 c2) c2 || B3 c d3 G | c3 d e3 c | A2 A2 f2 e2 | d2 d2 d2 G2 | E2 G2 c3 G | A2 F2 d3 c | 
 B2 c2 e3 d | (c4 c2) c2 ||
